communes/197.svg

<?xml version="1.0" encoding="UTF-8" standalone="no"?>
<svg
   xmlns:dc="http://purl.org/dc/elements/1.1/"
   xmlns:cc="http://creativecommons.org/ns#"
   xmlns:rdf="http://www.w3.org/1999/02/22-rdf-syntax-ns#"
   xmlns:svg="http://www.w3.org/2000/svg"
   xmlns="http://www.w3.org/2000/svg"
   xmlns:sodipodi="http://sodipodi.sourceforge.net/DTD/sodipodi-0.dtd"
   xmlns:inkscape="http://www.inkscape.org/namespaces/inkscape"
   version="1.0"
   width="214.07071"
   height="250.75047"
   id="svg2780"
   sodipodi:docname="197.svg">
  <metadata
     id="metadata26">
    <rdf:RDF>
      <cc:Work
         rdf:about="">
        <dc:format>image/svg+xml</dc:format>
        <dc:type
           rdf:resource="http://purl.org/dc/dcmitype/StillImage" />
      </cc:Work>
    </rdf:RDF>
  </metadata>
  <sodipodi:namedview
     pagecolor="#ffffff"
     bordercolor="#666666"
     borderopacity="1"
     objecttolerance="10"
     gridtolerance="10"
     guidetolerance="10"
     inkscape:pageopacity="0"
     inkscape:pageshadow="2"
     inkscape:window-width="640"
     inkscape:window-height="480"
     id="namedview24" />
  <defs
     id="defs2782" />
  <g
     transform="translate(-17.716535,-811.86226)"
     id="layer1">
    <path
       d="M 18.716535,812.86226 L 22.572362,974.83932 C 25.326517,1090.5372 224.17727,1090.5372 226.93143,974.83932 L 230.78725,812.86226 L 18.716535,812.86226 z "
       style="fill:#ffef08;fill-opacity:1;fill-rule:evenodd;stroke:#000000;stroke-width:2;stroke-linecap:butt;stroke-miterlimit:4;stroke-dashoffset:0;stroke-opacity:1"
       id="path3282" />
    <path
       d="M 62.03125,78.96875 C 47.68486,78.96875 45.346388,89.468748 31,89.46875 C 27.303278,89.46875 23.823406,88.851193 20.59375,87.9375 L 22.5,168.40625 C 25.171672,169.03769 27.990812,169.4375 31,169.4375 C 45.346388,169.4375 47.684859,158.96875 62.03125,158.96875 C 76.377642,158.96875 78.684856,169.43749 93.03125,169.4375 C 107.37764,169.4375 109.68486,158.96875 124.03125,158.96875 C 138.37766,158.96875 140.71612,169.43749 155.0625,169.4375 C 169.40889,169.4375 171.70985,158.96875 186.03125,158.96875 C 200.35267,158.96875 202.68486,169.43749 217.03125,169.4375 C 220.53836,169.4375 223.87444,168.97738 227,168.25 L 228.90625,87.75 C 225.22755,88.766626 221.23226,89.468749 217.03125,89.46875 C 202.68486,89.46875 200.35266,78.968749 186.03125,78.96875 C 171.70986,78.96875 169.40889,89.468748 155.0625,89.46875 C 140.71612,89.46875 138.37766,78.968749 124.03125,78.96875 C 109.68486,78.96875 107.37763,89.468748 93.03125,89.46875 C 78.68486,89.46875 76.377641,78.968749 62.03125,78.96875 z "
       transform="translate(0,804.33069)"
       style="fill:#000000;fill-opacity:1;fill-rule:evenodd;stroke:none;stroke-width:1px;stroke-linecap:butt;stroke-linejoin:miter;stroke-opacity:1"
       id="path13401" />
    <path
       d="M 99.136094,913.37689 C 100.4362,908.0012 111.48504,901.81058 122.4257,899.47685 C 124.2708,899.08168 124.93034,901.73084 123.55936,901.91019 C 116.64979,902.80831 106.35595,908.62309 103.45631,913.538 C 106.35595,908.57904 116.66848,903.11866 123.55936,901.91019 C 125.82781,901.51237 126.1226,903.82999 124.96528,904.11437 C 119.533,905.44919 111.27414,909.0818 107.17983,913.47526 C 111.27414,909.0818 119.46034,905.28703 124.96528,904.11437 C 126.90514,903.70114 127.11968,906.58931 126.24701,906.74568 C 121.29677,907.63267 115.10887,911.784 113.77596,913.72347 C 115.10887,911.784 121.37787,907.97059 126.24701,906.74568 C 127.76881,906.36285 128.73354,908.96379 127.50218,909.33749 C 124.39349,910.28094 120.78917,912.65447 120.17602,914.23495 C 120.78501,912.59495 124.37786,910.20339 127.50218,909.33749 C 129.42142,908.80558 130.90222,913.52522 127.2199,914.23867"
       style="opacity:1;color:#000000;fill:#ffffff;fill-opacity:1;fill-rule:evenodd;stroke:#000000;stroke-width:1px;stroke-linecap:butt;stroke-linejoin:miter;marker:none;marker-start:none;marker-mid:none;marker-end:none;stroke-miterlimit:4;stroke-dasharray:none;stroke-dashoffset:0;stroke-opacity:1;visibility:visible;display:inline;overflow:visible;enable-background:accumulate"
       id="path9523" />
    <path
       d="M 160.50476,942.03068 C 161.00196,942.57775 162.03873,943.2802 162.77446,943.70322 C 164.23148,944.54095 163.17216,946.96168 162.01803,946.20028 C 160.69485,945.32734 158.45588,944.36558 157.14256,942.90986 C 158.45588,944.42788 160.71408,945.39695 162.01803,946.20028 C 163.20894,946.93396 162.25641,949.95353 160.43221,948.84331 C 157.91208,947.30954 154.85788,945.73127 152.89827,943.92477 C 154.85788,945.73127 157.87724,947.38079 160.43221,948.84331 C 161.877,949.67034 159.74264,952.36475 158.49399,951.39824 C 154.80831,948.54538 153.02729,948.89492 149.24337,944.96686 C 153.02729,948.89492 154.83508,948.5374 158.49399,951.39824 C 159.19156,951.94366 158.74871,953.68952 157.96539,953.42457 C 153.20206,951.81342 147.42262,949.13698 145.36692,945.14306"
       style="opacity:1;color:#000000;fill:#ffffff;fill-opacity:1;fill-rule:evenodd;stroke:#000000;stroke-width:1px;stroke-linecap:butt;stroke-linejoin:miter;marker:none;marker-start:none;marker-mid:none;marker-end:none;stroke-miterlimit:4;stroke-dasharray:none;stroke-dashoffset:0;stroke-opacity:1;visibility:visible;display:inline;overflow:visible;enable-background:accumulate"
       id="path9521" />
    <path
       d="M 45.812605,129.62353 C 38.764512,128.04656 36.366413,127.75195 42.941759,122.42946 C 49.190681,117.37121 64.917379,108.44499 104.08763,108.47925 C 143.13329,108.51351 178.80525,121.2531 180.83886,122.0166 C 183.03513,118.93198 198.56157,107.98696 204.10795,106.05517 C 209.61675,104.13647 209.60383,104.03178 209.80537,108.43283 C 210.01259,112.95822 206.22003,124.79691 204.94468,127.9861 C 207.68574,133.59283 210.47164,147.08016 210.4158,148.67476 C 210.34283,150.75896 209.31951,150.46702 206.95589,150.26058 C 204.73555,150.06666 184.18303,138.69017 181.26943,134.13181 C 177.54027,135.80927 136.24349,145.42128 106.09974,145.70069 C 76.08058,145.98011 50.359966,137.15748 43.591292,132.78265 C 37.22114,128.6654 41.224009,128.21391 45.812605,129.62353 z "
       transform="translate(0,804.33069)"
       style="fill:#ffffff;fill-opacity:1;fill-rule:evenodd;stroke:#000000;stroke-width:1px;stroke-linecap:butt;stroke-linejoin:round;stroke-opacity:1"
       id="path7551" />
    <path
       d="M 87.572556,134.7334 C 93.240397,139.57896 99.366831,143.74771 104.57608,149.27009 C 105.87087,150.64271 102.60231,151.96391 101.66874,150.94401 C 97.106114,145.95948 91.566475,141.42908 86.515342,136.67162 C 91.566475,141.42908 97.125344,145.96679 101.66874,150.94401 C 102.61177,151.97709 98.914494,153.96094 97.616088,152.26553 C 94.214931,147.82442 89.751115,142.5459 84.884174,138.18446 C 89.751115,142.5459 94.180091,147.80757 97.616088,152.26553 C 98.632362,153.58407 94.796436,153.84048 93.91584,152.52983 C 91.111161,148.35545 87.65623,144.29993 83.872307,140.37187 C 87.65623,144.29993 91.137934,148.34747 93.91584,152.52983 C 94.405755,153.26744 92.281653,153.74719 91.713311,153.14654 C 88.271503,149.50906 85.311293,145.1587 82.110284,141.16478"
       transform="translate(0,804.33069)"
       style="opacity:1;color:#000000;fill:#ffffff;fill-opacity:1;fill-rule:evenodd;stroke:#000000;stroke-width:1px;stroke-linecap:round;stroke-linejoin:round;marker:none;marker-start:none;marker-mid:none;marker-end:none;stroke-miterlimit:4;stroke-dasharray:none;stroke-dashoffset:0;stroke-opacity:1;visibility:visible;display:inline;overflow:visible;enable-background:accumulate"
       id="path8522" />
    <path
       d="M 68.454604,117.20127 C 83.431801,125.21847 86.251038,134.29289 67.39739,141.34099"
       transform="translate(0,804.33069)"
       style="opacity:1;color:#000000;fill:none;fill-opacity:0.75;fill-rule:evenodd;stroke:#000000;stroke-width:1px;stroke-linecap:round;stroke-linejoin:miter;marker:none;marker-start:none;marker-mid:none;marker-end:none;stroke-miterlimit:4;stroke-dasharray:none;stroke-dashoffset:0;stroke-opacity:1;visibility:visible;display:inline;overflow:visible;enable-background:accumulate"
       id="path8524" />
    <path
       d="M 65.10676 121.95873 A 4.316957 4.316957 0 1 1  56.472846,121.95873 A 4.316957 4.316957 0 1 1  65.10676 121.95873 z"
       transform="translate(0,804.33069)"
       style="opacity:1;color:#000000;fill:none;fill-opacity:0.75;fill-rule:evenodd;stroke:#000000;stroke-width:1pt;stroke-linecap:butt;stroke-linejoin:miter;marker:none;marker-start:none;marker-mid:none;marker-end:none;stroke-miterlimit:4;stroke-dasharray:none;stroke-dashoffset:0;stroke-opacity:1;visibility:visible;display:inline;overflow:visible;enable-background:accumulate"
       id="path8526" />
    <path
       d="M 65.10676 121.95873 A 4.316957 4.316957 0 1 1  56.472846,121.95873 A 4.316957 4.316957 0 1 1  65.10676 121.95873 z"
       transform="matrix(0.4489796,0,0,0.4489796,33.496422,871.53244)"
       style="opacity:1;color:#000000;fill:#000000;fill-opacity:1;fill-rule:evenodd;stroke:#000000;stroke-width:2.2272728pt;stroke-linecap:butt;stroke-linejoin:miter;marker:none;marker-start:none;marker-mid:none;marker-end:none;stroke-miterlimit:4;stroke-dasharray:none;stroke-dashoffset:0;stroke-opacity:1;visibility:visible;display:inline;overflow:visible;enable-background:accumulate"
       id="path8530" />
    <path
       d="M 65.10676 121.95873 A 4.316957 4.316957 0 1 1  56.472846,121.95873 A 4.316957 4.316957 0 1 1  65.10676 121.95873 z"
       transform="matrix(0.3265306,0,0,0.3265306,24.817558,889.81401)"
       style="opacity:1;color:#000000;fill:#000000;fill-opacity:1;fill-rule:evenodd;stroke:none;stroke-width:2.2272728pt;stroke-linecap:butt;stroke-linejoin:miter;marker:none;marker-start:none;marker-mid:none;marker-end:none;stroke-miterlimit:4;stroke-dasharray:none;stroke-dashoffset:0;stroke-opacity:1;visibility:visible;display:inline;overflow:visible;enable-background:accumulate"
       id="path9501" />
    <path
       d="M 204.94468,127.9861 L 193.91066,127.3329"
       transform="translate(0,804.33069)"
       style="fill:none;fill-opacity:0.75;fill-rule:evenodd;stroke:#000000;stroke-width:1px;stroke-linecap:round;stroke-linejoin:miter;stroke-opacity:1"
       id="path9503" />
    <path
       d="M 206.68533,132.26657 C 202.36837,131.83187 198.05142,131.18713 193.73446,129.35923"
       transform="translate(0,804.33069)"
       style="fill:none;fill-opacity:0.75;fill-rule:evenodd;stroke:#000000;stroke-width:1px;stroke-linecap:round;stroke-linejoin:miter;stroke-opacity:1"
       id="path9505" />
    <path
       d="M 208.35925,138.08124 C 203.14887,136.25262 197.85772,134.1817 192.41294,131.64986"
       transform="translate(0,804.33069)"
       style="fill:none;fill-opacity:0.75;fill-rule:evenodd;stroke:#000000;stroke-width:1px;stroke-linecap:round;stroke-linejoin:miter;stroke-opacity:1"
       id="path9507" />
    <path
       d="M 209.32836,143.10301 C 202.36834,140.57766 195.52588,137.22939 188.80079,133.05948"
       transform="translate(0,804.33069)"
       style="fill:none;fill-opacity:0.75;fill-rule:evenodd;stroke:#000000;stroke-width:1px;stroke-linecap:round;stroke-linejoin:miter;stroke-opacity:1"
       id="path9509" />
    <path
       d="M 210.03317,147.50807 C 201.31496,144.43868 192.93776,140.00525 184.92434,134.11669"
       transform="translate(0,804.33069)"
       style="fill:none;fill-opacity:0.75;fill-rule:evenodd;stroke:#000000;stroke-width:1px;stroke-linecap:round;stroke-linejoin:miter;stroke-opacity:1"
       id="path9511" />
    <path
       d="M 206.94963,121.95873 C 201.93583,122.59138 197.13317,123.6463 192.58914,125.21847"
       transform="translate(0,804.33069)"
       style="fill:none;fill-opacity:0.75;fill-rule:evenodd;stroke:#000000;stroke-width:1px;stroke-linecap:round;stroke-linejoin:miter;stroke-opacity:1"
       id="path9513" />
    <path
       d="M 208.27115,117.02507 C 202.29631,118.91817 196.23198,119.91631 190.47471,123.98506"
       transform="translate(0,804.33069)"
       style="fill:none;fill-opacity:0.75;fill-rule:evenodd;stroke:#000000;stroke-width:1px;stroke-linecap:round;stroke-linejoin:miter;stroke-opacity:1"
       id="path9515" />
    <path
       d="M 209.32836,111.56279 C 200.89397,114.78932 192.83174,118.25268 186.95067,123.10405"
       transform="translate(0,804.33069)"
       style="fill:none;fill-opacity:0.75;fill-rule:evenodd;stroke:#000000;stroke-width:1px;stroke-linecap:round;stroke-linejoin:miter;stroke-opacity:1"
       id="path9517" />
    <path
       d="M 209.50457,106.71723 C 200.18007,110.88867 191.40767,115.68123 183.95523,121.95873"
       transform="translate(0,804.33069)"
       style="fill:none;fill-opacity:0.75;fill-rule:evenodd;stroke:#000000;stroke-width:1px;stroke-linecap:round;stroke-linejoin:miter;stroke-opacity:1"
       id="path9519" />
  </g>
</svg>

<?xml version="1.0" encoding="UTF-8"?>
<svg version="1.0" viewBox="0 0 214.07 250.75" xmlns="http://www.w3.org/2000/svg" xmlns:cc="http://creativecommons.org/ns#" xmlns:dc="http://purl.org/dc/elements/1.1/" xmlns:rdf="http://www.w3.org/1999/02/22-rdf-syntax-ns#">
<metadata>
<rdf:RDF>
<cc:Work rdf:about="">
<dc:format>image/svg+xml</dc:format>
<dc:type rdf:resource="http://purl.org/dc/dcmitype/StillImage"/>
</cc:Work>
</rdf:RDF>
</metadata>
<g transform="translate(-17.717 -811.86)">
<path d="m18.717 812.86 3.8558 161.98c2.7542 115.7 201.6 115.7 204.36 0l3.8558-161.98h-212.07z" fill="#ffef08" fill-rule="evenodd" stroke="#000" stroke-width="2"/>
<path transform="translate(0 804.33)" d="m62.031 78.969c-14.346 0-16.685 10.5-31.031 10.5-3.6967 0-7.1766-0.61756-10.406-1.5312l1.9062 80.469c2.6717 0.63144 5.4908 1.0312 8.5 1.0312 14.346 0 16.685-10.469 31.031-10.469 14.346 0 16.654 10.469 31 10.469 14.346 0 16.654-10.469 31-10.469 14.346 0 16.685 10.469 31.031 10.469 14.346 0 16.647-10.469 30.969-10.469 14.321 0 16.654 10.469 31 10.469 3.5071 0 6.8432-0.46012 9.9688-1.1875l1.9062-80.5c-3.6787 1.0166-7.674 1.7187-11.875 1.7188-14.346 0-16.679-10.5-31-10.5-14.321 0-16.622 10.5-30.969 10.5-14.346 0-16.685-10.5-31.031-10.5-14.346 0-16.654 10.5-31 10.5-14.346 0-16.654-10.5-31-10.5z" fill-rule="evenodd"/>
<path d="m99.136 913.38c1.3001-5.3757 12.349-11.566 23.29-13.9 1.8451-0.39517 2.5046 2.254 1.1337 2.4333-6.9096 0.89812-17.203 6.7129-20.103 11.628 2.8996-4.959 13.212-10.419 20.103-11.628 2.2684-0.39782 2.5632 1.9198 1.4059 2.2042-5.4323 1.3348-13.691 4.9674-17.785 9.3609 4.0943-4.3935 12.281-8.1882 17.785-9.3609 1.9399-0.41323 2.1544 2.4749 1.2817 2.6313-4.9502 0.88699-11.138 5.0383-12.471 6.9778 1.3329-1.9395 7.6019-5.7529 12.471-6.9778 1.5218-0.38283 2.4865 2.2181 1.2552 2.5918-3.1087 0.94345-6.713 3.317-7.3262 4.8975 0.60899-1.64 4.2018-4.0316 7.3262-4.8975 1.9192-0.53191 3.4 4.1877-0.28228 4.9012" color="#000000" fill="#fff" fill-rule="evenodd" stroke="#000" stroke-width="1px"/>
<path d="m160.5 942.03c0.4972 0.54707 1.534 1.2495 2.2697 1.6725 1.457 0.83773 0.3977 3.2585-0.75643 2.4971-1.3232-0.87294-3.5622-1.8347-4.8755-3.2904 1.3133 1.518 3.5715 2.4871 4.8755 3.2904 1.1909 0.73368 0.23838 3.7532-1.5858 2.643-2.5201-1.5338-5.5743-3.112-7.5339-4.9185 1.9596 1.8065 4.979 3.456 7.5339 4.9185 1.4448 0.82703-0.68957 3.5214-1.9382 2.5549-3.6857-2.8529-5.4667-2.5033-9.2506-6.4314 3.7839 3.9281 5.5917 3.5705 9.2506 6.4314 0.69757 0.54542 0.25472 2.2913-0.5286 2.0263-4.7633-1.6112-10.543-4.2876-12.598-8.2815" color="#000000" fill="#fff" fill-rule="evenodd" stroke="#000" stroke-width="1px"/>
<path transform="translate(0 804.33)" d="m45.813 129.62c-7.0481-1.577-9.4462-1.8716-2.8708-7.1941 6.2489-5.0582 21.976-13.984 61.146-13.95 39.046 0.03426 74.718 12.774 76.751 13.537 2.1963-3.0846 17.723-14.03 23.269-15.961 5.5088-1.9187 5.4959-2.0234 5.6974 2.3777 0.20722 4.5254-3.5853 16.364-4.8607 19.553 2.7411 5.6067 5.527 19.094 5.4711 20.689-0.07297 2.0842-1.0963 1.7923-3.4599 1.5858-2.2203-0.19392-22.773-11.57-25.686-16.129-3.7292 1.6775-45.026 11.289-75.17 11.569-30.019 0.27942-55.74-8.5432-62.508-12.918-6.3702-4.1172-2.3673-4.5687 2.2213-3.1591z" fill="#fff" fill-rule="evenodd" stroke="#000" stroke-linejoin="round" stroke-width="1px"/>
<path transform="translate(0 804.33)" d="m87.573 134.73c5.6678 4.8456 11.794 9.0143 17.004 14.537 1.2948 1.3726-1.9738 2.6938-2.9073 1.6739-4.5626-4.9845-10.102-9.5149-15.153-14.272 5.0511 4.7575 10.61 9.2952 15.153 14.272 0.94303 1.0331-2.7542 3.0169-4.0527 1.3215-3.4012-4.4411-7.865-9.7196-12.732-14.081 4.8669 4.3614 9.2959 9.6231 12.732 14.081 1.0163 1.3185-2.8197 1.575-3.7002 0.2643-2.8047-4.1744-6.2596-8.2299-10.044-12.158 3.7839 3.9281 7.2656 7.9756 10.044 12.158 0.48992 0.73761-1.6342 1.2174-2.2025 0.61671-3.4418-3.6375-6.402-7.9878-9.603-11.982" color="#000000" fill="#fff" fill-rule="evenodd" stroke="#000" stroke-linecap="round" stroke-linejoin="round" stroke-width="1px"/>
<path transform="translate(0 804.33)" d="m68.455 117.2c14.977 8.0172 17.796 17.092-1.0572 24.14" color="#000000" fill="none" stroke="#000" stroke-linecap="round" stroke-width="1px"/>
<path transform="translate(0 804.33)" d="m65.107 121.96a4.317 4.317 0 1 1-8.6339 0 4.317 4.317 0 1 1 8.6339 0z" color="#000000" fill="none" stroke="#000" stroke-width="1pt"/>
<path transform="matrix(.44898 0 0 .44898 33.496 871.53)" d="m65.107 121.96a4.317 4.317 0 1 1-8.6339 0 4.317 4.317 0 1 1 8.6339 0z" color="#000000" fill-rule="evenodd" stroke="#000" stroke-width="2.2273pt"/>
<path transform="matrix(.32653 0 0 .32653 24.818 889.81)" d="m65.107 121.96a4.317 4.317 0 1 1-8.6339 0 4.317 4.317 0 1 1 8.6339 0z" color="#000000" fill-rule="evenodd"/>
<path transform="translate(0 804.33)" d="m204.94 127.99-11.034-0.6532" fill="none" stroke="#000" stroke-linecap="round" stroke-width="1px"/>
<path transform="translate(0 804.33)" d="m206.69 132.27c-4.317-0.4347-8.6339-1.0794-12.951-2.9073" fill="none" stroke="#000" stroke-linecap="round" stroke-width="1px"/>
<path transform="translate(0 804.33)" d="m208.36 138.08c-5.2104-1.8286-10.502-3.8995-15.946-6.4314" fill="none" stroke="#000" stroke-linecap="round" stroke-width="1px"/>
<path transform="translate(0 804.33)" d="m209.33 143.1c-6.96-2.5254-13.802-5.8736-20.528-10.044" fill="none" stroke="#000" stroke-linecap="round" stroke-width="1px"/>
<path transform="translate(0 804.33)" d="m210.03 147.51c-8.7182-3.0694-17.095-7.5028-25.109-13.391" fill="none" stroke="#000" stroke-linecap="round" stroke-width="1px"/>
<path transform="translate(0 804.33)" d="m206.95 121.96c-5.0138 0.63265-9.8165 1.6876-14.36 3.2597" fill="none" stroke="#000" stroke-linecap="round" stroke-width="1px"/>
<path transform="translate(0 804.33)" d="m208.27 117.03c-5.9748 1.8931-12.039 2.8912-17.796 6.96" fill="none" stroke="#000" stroke-linecap="round" stroke-width="1px"/>
<path transform="translate(0 804.33)" d="m209.33 111.56c-8.4344 3.2265-16.497 6.6899-22.378 11.541" fill="none" stroke="#000" stroke-linecap="round" stroke-width="1px"/>
<path transform="translate(0 804.33)" d="m209.5 106.72c-9.3245 4.1714-18.097 8.964-25.549 15.242" fill="none" stroke="#000" stroke-linecap="round" stroke-width="1px"/>
</g>
</svg>
